X:1
T:Clairières dans le ciel
T:Je garde une médaille d'elle
T:Clairières dans le ciel
T:Lili Boulanger
T:12. Je garde une médaille d'elle 
T:Francis Jammes
T:Creative Commons copyright waiver (CC0 1.0 Universal)
C:Lili Boulanger
Z:Francis Jammes
Z:Creative Commons copyright waiver (CC0 1.0 Universal)
L:1/8
Q:1/4=71
M:4/4
K:F
V:1 treble nm="Chant\nVoice"
V:1
"^Assez lent et bien mesuré" z!p!"^avec gravité" d e e/ z/ (3f f !tenuto!f e3/2 e/ | %1
w: Je gar- de u- ne mé- dail- le|
 d4- d !tenuto!d !tenuto!e !tenuto!c | %2
w: d'elle _ où sont gra-|
 !tenuto!A2-!<(! A/ z/ A/ A/ !>!c2- c/ z/ !tenuto!c/ !tenuto!c/!<)! |!f! f4- f2 z3/2!p! e/ | %4
w: vés _ u- ne da- te et les|mots: _ pri-|
!<(! d2- d z e2- e/ z/ e/ d/!<)! |!f! g8 | %6
w: er, _ croi- re, es- pé-|rer.|
!p! z"^las" !tenuto!d-!<(! d/ z/"^poco" !tenuto!e- e/!<)! z/ f!>(! g3/2 g/ | %7
w: Mais _ moi, _ je vois sur-|
 d3!>)! (e f!<(! f g3/2 g/!<)! |!>(! !>!=g6!>)! e2) |!p! z c/ c/ d2 z d/ d/ e2 | %10
w: tout que la mé- daille est|som- bre:|Son ar- gent a noir- ci|
"^avec tendresse" z2 (f!<(! !tenuto!d!<)! =g2!>(! f !tenuto!e!>)! | e6 d2- | d) z z2 z4 | z8 | %14
w: sur son col de co-|\- lom- be|_||
 z8 |] %15
w: |

